X: 21372
M: 2/4
L: 1/16
K: D
V: 1 name="5"
e2e2 f2f2 | g2e2 dcBA | d2d2 cdec | d6 H|]
d4 e4 | f3g a2f2 | g2e2 f2d2 | edcB ABcA |\
d4 e4 | f3g a2f2 | edcB A2^G2 | "^D.C."A6 |]
dcd2 dcd2 | edcd e2fg | afge d2df | edcB A4 |\
dcd2 dcd2 | edcd e2fg | afge d2c2 | "^D.C."d6 |]
f6 gf | e6 fe | d2d2 c2d2 | edcB A4 |\
f6 gf | e6 fg | afge d2c2 | "^D.C."d6 |]


